X:1
T:Title
%%score 1 { 2 | 3 }
L:1/8
Q:1/4=95
M:4/4
K:A
V:1 treble nm="Grand Piano, Soprano"
V:2 bass nm="Choir Pad, I Am Clinging to the Rock"
V:3 bass 
V:1
 [CE]>[CE] [EA]<[EA] [CA]>[DB] [Ec]2 | [CE]>E [DF]2 [FA]2 [FA]2 | %2
w: By~John~Michael~Bowman * * * * * *||
 [DF]>[DF] [CE][A,C] [CE][DF] [EA]2 | [Ec]2 [EB]6 | E>[DE] [CA]>[CA] [CA][DB] [Ec]2 | %5
w: |||
 [CE]>E [DF]2 [FA]2 [FA]2 | [DF]>[DF] [CE][EA] [EA][FB] [Ec]2 | [DB]2 [CA]6 | %8
w: |||
 [Ec]>[Ed] [Ae]<[Ae] AA [Ac]<[Ac] | A>G [FB]>[FA] [DF]>[DF] [FA]2 | %10
w: ||
 [EG]>[DF] [CE]>[A,C] [CE][DF] [EA]2 | [Ec]2 [EB]6 | [Ec]>[Ed] [Ae]<[Ae] AA [Ac]<[Ac] | %13
w: |||
 A>G [FB]>[FA] [DF]>[DF] [FA]2 | [DF]>[DF] [CE]>[CE] [EA][FB] [Ec]2 | [DB]2 [CA]6- | [CA]2 z2 z4 |] %17
w: ||||
V:2
 A,>A, C<C A,>A, A,2 | A,>A, A,2 D2 D2 | A,>A, A,E, A,A, A,2 | A,2 G,6 | A,>G, A,>A, E,E, A,2 | %5
 A,>A, A,2 D2 D2 | A,>A, A,C A,A, A,2 | G,2 A,6 | A,>B,[K:treble] C<C CE E<E | %9
 C>E D>D[K:bass] A,>A, D2 | A,>A, A,>E, A,A, A,2 | A,2 G,6 | A,>B,[K:treble] C<C CC E<E | %13
 C>E D>D[K:bass] A,>A, D2 | A,>A, A,>A, A,A, A,2 | G,2 A,6- | A,2 z2 z4 |] %17
V:3
 A,,>A,, A,,<A,, A,,>A,, A,,2 | A,,>C, D,2 D,2 D,2 | D,>D, A,,A,, A,,D, C,2 | A,,2 E,4 D,2 | %4
 C,>B,, A,,>A,, A,,A,, A,,2 | A,,>C, D,2 D,2 D,2 | D,>D, A,,A,, C,D, E,2 | E,2 A,,6 | %8
 z z/ A,/ A,<A, E,C, A,,<A,, | A,,>C, D,>D, D,>D, D,2 | D,>D, A,,>A,, A,,D, C,2 | A,,2 E,6 | %12
 z z/ A,/ A,<A, E,C, A,,<A,, | A,,>C, D,>D, D,>D, D,2 | D,>D, A,,>A,, C,D, E,2 | E,2 A,,6- | %16
 A,,2 z2 z4 |] %17

